brandFactory_export/1.Light/Virus_1Light.svg

<?xml version="1.0" encoding="UTF-8"?>
<svg width="24px" height="24px" viewBox="0 0 24 24" version="1.1" xmlns="http://www.w3.org/2000/svg" xmlns:xlink="http://www.w3.org/1999/xlink">
    <title>1.Light/Virus_1Light</title>
    <g id="Symbols" stroke="none" stroke-width="1" fill="none" fill-rule="evenodd">
        <g id="1.Light/Virus_1Light" fill="#5CB615" fill-rule="nonzero">
            <path d="M5.93613445,21.0352941 C6.79663866,20.7529412 8.14117647,19.9663866 7.49243697,17.892437 C7.1092437,16.6420168 6.37983193,16.0369748 5.27058824,16.0369748 C4.88739496,16.0369748 4.56470588,16.107563 4.4,16.1478992 C4.3092437,16.1781513 4.20840336,16.2084034 4.11764706,16.2386555 C3.07563025,16.5714286 1.96638655,17.3781513 2.58151261,19.3747899 C2.97478992,20.6352941 3.6907563,21.2504202 4.77310924,21.2504202 C5.16638655,21.2504202 5.48907563,21.1798319 5.65042017,21.1294118 C5.74453782,21.0957983 5.85546218,21.0655462 5.93613445,21.0352941 Z M9.40168067,16.7630252 C9.66386555,16.6823529 9.94621849,16.8336134 10.0268908,17.0957983 C10.107563,17.3680672 9.95630252,17.6504202 9.69411765,17.7310924 L8.58151261,18.0739496 C8.73277311,18.810084 8.68235294,19.4151261 8.5210084,19.9092437 L9.44201681,20.4033613 C9.69411765,20.5243697 9.78487395,20.8369748 9.65378151,21.0789916 C9.56302521,21.2504202 9.39159664,21.3512605 9.20672269,21.3512605 C9.12605042,21.3512605 9.04537815,21.3310924 8.97478992,21.2907563 L8.03361345,20.7966387 C7.5697479,21.3714286 6.96470588,21.7142857 6.54789916,21.8857143 L6.90084034,23.005042 C6.98151261,23.2672269 6.8302521,23.5495798 6.56806723,23.6302521 C6.51764706,23.6504202 6.46722689,23.6605042 6.41680672,23.6605042 C6.20504202,23.6605042 6.00336134,23.5193277 5.93277311,23.297479 L5.58991597,22.1781513 C5.36806723,22.2184874 5.09579832,22.2588235 4.77310924,22.2588235 C4.45714286,22.2588235 4.11428571,22.2184874 3.76134454,22.107563 L3.25714286,23.0453782 C3.16638655,23.2168067 2.99495798,23.3176471 2.81008403,23.3176471 C2.72941176,23.3176471 2.6487395,23.297479 2.57815126,23.2571429 C2.32605042,23.1260504 2.23193277,22.8235294 2.36638655,22.5815126 L2.87058824,21.6336134 C2.45714286,21.3109244 2.08067227,20.8369748 1.79831933,20.1613445 L0.648739496,20.5142857 C0.598319328,20.5243697 0.54789916,20.5344538 0.497478992,20.5344538 C0.285714286,20.5344538 0.0840336134,20.3932773 0.0235294118,20.1815126 C-0.0571428571,19.9193277 0.0840336134,19.6268908 0.356302521,19.5462185 L1.49915966,19.1932773 C1.33781513,18.4672269 1.37815126,17.8621849 1.5394958,17.3680672 L0.608403361,16.8840336 C0.356302521,16.7529412 0.265546218,16.4403361 0.396638655,16.1983193 C0.527731092,15.9462185 0.830252101,15.8554622 1.07226891,15.9865546 L2.00336134,16.4806723 C2.45714286,15.8957983 3.07563025,15.5630252 3.48907563,15.3915966 L3.14621849,14.2722689 C3.06554622,14.010084 3.21680672,13.7277311 3.4789916,13.6470588 C3.74117647,13.5563025 4.02352941,13.707563 4.11428571,13.9798319 L4.45714286,15.1092437 C4.6789916,15.0588235 4.9512605,15.0285714 5.26722689,15.0285714 C5.58991597,15.0285714 5.93277311,15.0689076 6.28907563,15.1798319 L6.78319328,14.2319328 C6.91428571,13.9798319 7.22689076,13.8890756 7.47226891,14.0201681 C7.71428571,14.1512605 7.81512605,14.4537815 7.68403361,14.6957983 L7.18991597,15.6336134 C7.60336134,15.9563025 7.98991597,16.4302521 8.27226891,17.1159664 L9.40168067,16.7630252 L9.40168067,16.7630252 Z M19.9428571,16.2789916 C21.307563,14.9176471 22.0537815,13.2134454 16.2554622,7.42521008 C12.7092437,3.87563025 10.6857143,2.78655462 9.34117647,2.78655462 C8.4907563,2.78655462 7.90588235,3.22016807 7.38151261,3.74453782 C6.01680672,5.11596639 5.2605042,6.82016807 11.0588235,12.605042 C16.8605042,18.3932773 18.5680672,17.6470588 19.9428571,16.2789916 Z M23.2672269,14.7529412 C23.5294118,14.8436975 23.6806723,15.1260504 23.6,15.3882353 C23.5294118,15.610084 23.3277311,15.7411765 23.1159664,15.7411765 C23.0655462,15.7411765 23.0151261,15.7411765 22.9647059,15.7210084 L21.7310924,15.3378151 C21.5798319,15.7714286 21.3478992,16.194958 21.005042,16.5983193 L21.9361345,17.5260504 C22.1378151,17.7176471 22.1378151,18.0403361 21.9361345,18.2319328 C21.8352941,18.3327731 21.7142857,18.3831933 21.5831933,18.3831933 C21.4521008,18.3831933 21.3210084,18.3327731 21.2201681,18.2319328 L20.2890756,17.3042017 C19.8823529,17.6470588 19.4689076,17.8890756 19.0352941,18.0403361 L19.4184874,19.2705882 C19.4991597,19.5327731 19.3579832,19.8151261 19.0857143,19.8957983 C19.0352941,19.9159664 18.9848739,19.9260504 18.9344538,19.9260504 C18.7226891,19.9260504 18.5210084,19.7848739 18.4571429,19.5731092 L18.0336134,18.2319328 C18.0134454,18.2319328 17.9932773,18.2420168 17.9731092,18.2420168 C17.3781513,18.2420168 16.7394958,18.0705882 16.0436975,17.7579832 L15.912605,18.8571429 C15.8722689,19.1092437 15.6605042,19.3008403 15.4084034,19.3008403 C15.3882353,19.3008403 15.3680672,19.3008403 15.3478992,19.2907563 C15.0655462,19.2605042 14.8739496,19.0084034 14.9042017,18.7260504 L15.0957983,17.2638655 C14.5512605,16.9411765 13.9764706,16.5277311 13.3579832,16.0436975 L12.712605,17.3344538 C12.6218487,17.5058824 12.4403361,17.6067227 12.2588235,17.6067227 C12.1781513,17.6067227 12.107563,17.5966387 12.0268908,17.5563025 C11.7848739,17.4352941 11.6840336,17.1327731 11.805042,16.8806723 L12.5647059,15.3781513 C11.9798319,14.8739496 11.3647059,14.2991597 10.7058824,13.6537815 L9.52268908,14.8235294 C9.42184874,14.9243697 9.30084034,14.9747899 9.1697479,14.9747899 C9.03865546,14.9747899 8.90756303,14.9243697 8.80672269,14.8235294 C8.61512605,14.6319328 8.61512605,14.3092437 8.80672269,14.1176471 L9.98991597,12.9378151 C9.34453782,12.2823529 8.76638655,11.6571429 8.26218487,11.0722689 L6.75630252,11.8285714 C6.68571429,11.8689076 6.60504202,11.8890756 6.53445378,11.8890756 C6.34285714,11.8890756 6.16806723,11.7882353 6.08067227,11.6067227 C5.95966387,11.3546218 6.05042017,11.0521008 6.30252101,10.9310924 L7.59663866,10.2857143 C7.11260504,9.67058824 6.69579832,9.08571429 6.37310924,8.5512605 L4.90756303,8.73277311 C4.87731092,8.73277311 4.85714286,8.74285714 4.83697479,8.74285714 C4.58487395,8.74285714 4.37310924,8.5512605 4.34285714,8.29915966 C4.30252101,8.01680672 4.50420168,7.76470588 4.77647059,7.73445378 L5.8789916,7.59327731 C5.56638655,6.87731092 5.42521008,6.22184874 5.43529412,5.61680672 L4.0605042,5.19327731 C3.79831933,5.11260504 3.64369748,4.8302521 3.73445378,4.55798319 C3.81512605,4.29579832 4.10084034,4.14453782 4.36302521,4.22521008 L5.62689076,4.61848739 C5.77815126,4.19495798 6.02016807,3.78151261 6.36302521,3.38823529 L5.40168067,2.4302521 C5.2,2.22857143 5.2,1.91596639 5.40168067,1.71428571 C5.59327731,1.52268908 5.91596639,1.52268908 6.10756303,1.71428571 L7.06890756,2.67226891 C7.46218487,2.34957983 7.8789916,2.11764706 8.30252101,1.96638655 L7.9092437,0.685714286 C7.81848739,0.423529412 7.9697479,0.141176471 8.23193277,0.0504201681 C8.50420168,-0.0302521008 8.78655462,0.121008403 8.86722689,0.383193277 L9.30420168,1.79495798 C9.9092437,1.78487395 10.5579832,1.92605042 11.2739496,2.23865546 L11.4151261,1.09915966 C11.4554622,0.816806723 11.707563,0.625210084 11.9798319,0.665546218 C12.2521008,0.695798319 12.4571429,0.94789916 12.4168067,1.22016807 L12.2252101,2.74285714 C12.7596639,3.05546218 13.3344538,3.46890756 13.9529412,3.95294118 L14.6184874,2.62184874 C14.7394958,2.3697479 15.0521008,2.26890756 15.2941176,2.4 C15.5462185,2.5210084 15.6470588,2.82352941 15.5159664,3.07563025 L14.7495798,4.61848739 C15.3243697,5.11260504 15.9394958,5.68739496 16.5983193,6.33277311 L17.8117647,5.12268908 C18.0033613,4.93109244 18.3260504,4.93109244 18.5277311,5.12268908 C18.7193277,5.32436975 18.7193277,5.63697479 18.5277311,5.83865546 L17.3142857,7.0487395 C17.9596639,7.69411765 18.5277311,8.3092437 19.0319328,8.89411765 L20.5781513,8.11764706 C20.8302521,7.99663866 21.1327731,8.09747899 21.2537815,8.3394958 C21.3848739,8.59159664 21.2840336,8.89411765 21.0319328,9.01512605 L19.697479,9.6907563 C20.1915966,10.2957983 20.5983193,10.8705882 20.9210084,11.405042 L22.4369748,11.2134454 C22.7092437,11.1731092 22.9613445,11.3747899 22.9915966,11.6571429 C23.0319328,11.9294118 22.8302521,12.1815126 22.5579832,12.2218487 L21.4352941,12.3529412 C21.7579832,13.0689076 21.9092437,13.7243697 21.8991597,14.3294118 L23.2672269,14.7529412 L23.2672269,14.7529412 Z" id="Virus_1Light"></path>
        </g>
    </g>
</svg>

<svg width="24" height="24" viewBox="0 0 24 24" xmlns="http://www.w3.org/2000/svg"><path d="M5.936 21.035c.86-.282 2.205-1.069 1.556-3.143-.383-1.25-1.112-1.855-2.221-1.855-.384 0-.706.07-.871.11-.09.031-.192.061-.282.092-1.042.332-2.152 1.14-1.536 3.136.393 1.26 1.109 1.875 2.191 1.875.393 0 .716-.07.877-.12.095-.034.205-.064.286-.095zm3.466-4.272c.262-.08.544.07.625.333a.51.51 0 01-.333.635l-1.112.343c.15.736.1 1.341-.061 1.835l.921.494a.491.491 0 01.212.676.504.504 0 01-.447.272.468.468 0 01-.232-.06l-.941-.494a3.811 3.811 0 01-1.486 1.089l.353 1.119a.504.504 0 01-.333.625c-.05.02-.1.03-.151.03a.514.514 0 01-.484-.363l-.343-1.119c-.222.04-.494.08-.817.08-.316 0-.659-.04-1.012-.15l-.504.937a.504.504 0 01-.447.273.468.468 0 01-.232-.06.491.491 0 01-.212-.676l.505-.948c-.414-.323-.79-.797-1.073-1.473l-1.15.353c-.05.01-.1.02-.15.02a.506.506 0 01-.141-.988l1.142-.353c-.161-.726-.12-1.33.04-1.825l-.93-.484a.505.505 0 01-.212-.686.494.494 0 01.675-.211l.931.494c.454-.585 1.073-.918 1.486-1.09l-.343-1.119a.504.504 0 01.333-.625c.262-.09.545.06.635.333l.343 1.13a3.7 3.7 0 01.81-.081c.323 0 .666.04 1.022.15l.494-.947a.508.508 0 01.69-.212.502.502 0 01.211.676l-.494.938c.413.322.8.796 1.082 1.482l1.13-.353zm10.54-.484c1.366-1.361 2.112-3.066-3.687-8.854-3.546-3.55-5.57-4.638-6.914-4.638-.85 0-1.435.433-1.96.958-1.364 1.371-2.12 3.075 3.678 8.86 5.802 5.788 7.51 5.042 8.884 3.674zm3.325-1.526a.52.52 0 01.333.635.505.505 0 01-.484.353c-.05 0-.1 0-.151-.02l-1.234-.383a3.923 3.923 0 01-.726 1.26l.931.928a.487.487 0 010 .706.49.49 0 01-.353.151.512.512 0 01-.363-.151l-.93-.928c-.408.343-.821.585-1.255.736l.383 1.23a.496.496 0 01-.332.626c-.05.02-.101.03-.152.03a.503.503 0 01-.477-.353l-.423-1.341c-.02 0-.04.01-.06.01-.596 0-1.235-.171-1.93-.484l-.131 1.1a.519.519 0 01-.505.443c-.02 0-.04 0-.06-.01a.503.503 0 01-.444-.565l.192-1.462c-.545-.323-1.12-.736-1.738-1.22l-.645 1.29a.518.518 0 01-.454.273.483.483 0 01-.232-.05.51.51 0 01-.222-.676l.76-1.503a40.205 40.205 0 01-1.86-1.724l-1.182 1.17a.49.49 0 01-.353.15.505.505 0 01-.363-.857l1.183-1.18a38.687 38.687 0 01-1.728-1.865l-1.506.757a.46.46 0 01-.222.06.494.494 0 01-.453-.282.5.5 0 01.222-.676l1.294-.645c-.484-.615-.901-1.2-1.224-1.735l-1.465.182c-.03 0-.05.01-.071.01a.5.5 0 01-.494-.444.496.496 0 01.433-.565l1.103-.14c-.313-.717-.454-1.372-.444-1.977l-1.374-.424a.499.499 0 01-.327-.635.507.507 0 01.629-.333l1.264.393c.151-.423.393-.836.736-1.23l-.961-.958a.5.5 0 010-.716.505.505 0 01.706 0l.96.958c.394-.322.811-.554 1.235-.706L7.909.686A.505.505 0 018.232.05a.51.51 0 01.635.333l.437 1.412c.605-.01 1.254.131 1.97.444l.141-1.14a.5.5 0 01.565-.433c.272.03.477.282.437.554l-.192 1.523c.535.312 1.11.726 1.728 1.21l.665-1.331a.495.495 0 01.676-.222.492.492 0 01.222.676l-.766 1.542c.574.495 1.19 1.07 1.848 1.715l1.214-1.21a.518.518 0 01.716 0 .518.518 0 010 .716l-1.214 1.21c.646.645 1.214 1.26 1.718 1.845l1.546-.776a.51.51 0 01.676.221.492.492 0 01-.222.676l-1.335.676c.495.605.901 1.18 1.224 1.714l1.516-.192a.493.493 0 01.555.444.507.507 0 01-.434.565l-1.123.13c.323.717.474 1.372.464 1.977l1.368.424z" fill="#5CB615" fill-rule="nonzero"/></svg>
